outputs/icons/people/person_assign_round.svg

<svg xmlns="http://www.w3.org/2000/svg" width="1200" height="1200" fill="none"><path fill="#000" d="M950 150H741C720 92 665 50 600 50S480 92 459 150H250c-55 0-100 45-100 100v700c0 55 45 100 100 100h700c55 0 100-45 100-100V250c0-55-45-100-100-100m-350 0c27.5 0 50 22.5 50 50s-22.5 50-50 50-50-22.5-50-50 22.5-50 50-50m0 200c83 0 150 67 150 150s-67 150-150 150-150-67-150-150 67-150 150-150m300 550c0 27.615-22.385 50-50 50H350c-27.614 0-50-22.385-50-50v-20c0-100 200-155 300-155s300 55 300 155z"/></svg>

<svg width="1200" height="1200" viewBox="0 0 1200 1200" fill="none" xmlns="http://www.w3.org/2000/svg"><path d="M950 150H741C720 92 665 50 600 50C535 50 480 92 459 150H250C195 150 150 195 150 250V950C150 1005 195 1050 250 1050H950C1005 1050 1050 1005 1050 950V250C1050 195 1005 150 950 150ZM600 150C627.5 150 650 172.5 650 200C650 227.5 627.5 250 600 250C572.5 250 550 227.5 550 200C550 172.5 572.5 150 600 150ZM600 350C683 350 750 417 750 500C750 583 683 650 600 650C517 650 450 583 450 500C450 417 517 350 600 350ZM900 900C900 927.615 877.615 950 850 950H350C322.386 950 300 927.615 300 900V880C300 780 500 725 600 725C700 725 900 780 900 880V900Z" fill="black"/></svg>
